svg/moose.svg

<svg xmlns="http://www.w3.org/2000/svg" viewBox="0 0 100 100">
  <path d="M51 22H41v2h-8v1h-7v1h-5v4h-4v5h-3v14h7v-4h1v-2h2v8h4v-8h5v2h5v6h2v15h-2v17h-2v4h5v-4h2V66h3V53h2v8h2v17h2v7h4v-7h-2V61h-1v-8h14v-2h7v7h-1v11h1v9h4v-9h-1V58h2v-7h1v10h3v20h4V61h-2V49h-1v-5h2V29h-2v-3h-4v-2H67v2H54v-2h-3v-2Z"/>
  <path fill="currentColor" d="M39 14h-2v6h-1v6h-1v-6h-2v5h-2v-3h-2v3h-8v2h-2v-7h-3v7h-1v-9h-3v9h-1v-4H9v-4H7v5h2v3H7v-1H5v4h2v1h14v-1h13v-2h4v-6h1v-8Z"/>
</svg>

<svg width="100" height="100" viewBox="0 0 100 100" fill="none" xmlns="http://www.w3.org/2000/svg">
<path d="M51 22H41V24H33V25H26V26H21V30H17V35H14V49H21V45H22V43H24V51H28V43H33V45H38V51H40V66H38V83H36V87H41V83H43V66H46V53H48V61H50V78H52V85H56V78H54V61H53V53H67V51H74V58H73V69H74V78H78V69H77V58H79V51H80V61H83V81H87V61H85V49H84V44H86V29H84V26H80V24H67V26H54V24H51V22Z" fill="black"/>
<path d="M39 14H37V20H36V26H35V20H33V25H31V22H29V25H21V27H19V20H16V27H15V18H12V27H11V23H9V19H7V24H9V27H7V26H5V30H7V31H21V30H34V28H38V22H39V14Z" fill="#FFD600"/>
</svg>
